germany/districts/9186.svg

<?xml version="1.0" encoding="UTF-8" standalone="no"?>
<!-- Created with Inkscape (http://www.inkscape.org/) -->
<svg
   xmlns:svg="http://www.w3.org/2000/svg"
   xmlns="http://www.w3.org/2000/svg"
   version="1.0"
   width="402.07001"
   height="455.18893"
   id="svg5343">
  <defs
     id="defs5345" />
  <g
     transform="translate(-187.98273,-106.19629)"
     id="layer1">
    <path
       d="M 589.57282,106.19629 C 455.99153,106.19629 322.39354,106.19629 188.81176,106.19629 C 187.5299,185.34317 188.11684,267.02183 188.11684,347.79935 C 188.11684,375.23362 188.57771,400.14596 195.07119,421.95988 C 201.10399,442.23405 210.0282,461.10441 222.20306,477.00661 C 234.24463,492.7146 246.8378,507.81456 262.55779,519.52463 C 294.28095,543.14729 333.27775,561.38522 388.49702,561.38522 C 415.68728,561.38522 439.91211,556.66612 460.50822,548.8566 C 481.08734,541.05441 499.2448,531.59101 514.78025,519.52463 C 553.2407,489.64928 583.22151,447.18877 589.22941,388.66251 C 590.49448,376.29579 589.92482,363.0531 589.92482,349.11334 C 589.92482,268.76565 589.92482,187.76794 589.92482,107.17673 C 589.95011,106.72249 589.98361,106.24404 589.57282,106.19629 z"
       id="path799"
       style="fill:#000000;fill-opacity:1;fill-rule:evenodd;stroke:none" />
    <path
       d="M 194.87044,111.68629 L 385.47252,111.68629 L 385.47252,556.4142 C 361.30598,555.77307 339.62965,551.24095 321.01892,544.02325 C 300.90078,536.22995 283.15322,526.75844 267.97885,514.68328 C 230.38176,484.80793 201.07909,442.33941 195.20496,383.83805 C 193.96519,371.46254 194.53503,358.21243 194.53503,344.288 L 194.87044,111.68629 z"
       id="path801"
       style="fill:#ffffff;fill-opacity:1;fill-rule:evenodd;stroke:none" />
    <path
       d="M 583.50643,344.288 C 583.50643,358.21243 584.06769,371.46254 582.82762,383.83805 C 576.96208,442.33941 547.6515,484.80793 510.05441,514.68328 C 494.87927,526.75844 477.13259,536.22995 457.01356,544.02325 C 438.40372,551.24095 416.7263,555.77307 392.56074,556.4142 L 392.56074,111.68629 L 583.16283,111.68629 L 583.50643,344.288 z"
       id="path821"
       style="fill:#f9d100;fill-opacity:1;fill-rule:evenodd;stroke:none" />
    <g
       transform="matrix(12.20542,0,0,-12.20542,-3689.9054,9839.758)"
       id="g4901">
      <path
         d="M 348.23137,774.87784 C 347.47137,774.98274 346.73547,775.03714 345.87797,775.75284 C 346.00787,775.24324 345.74167,774.26244 345.11577,773.98034 C 344.67467,774.14054 344.22257,775.02774 344.35297,775.77074 C 344.04907,775.34954 342.86477,774.90334 341.99057,774.87814 C 341.48147,774.38994 341.34907,773.58044 341.72947,772.95994 C 342.61677,773.27314 343.19987,773.97274 343.71437,774.80274 C 343.54307,773.99174 343.41557,773.14334 344.05197,772.47654 C 344.44337,772.91424 344.71607,773.38454 345.06817,773.89474 C 344.49297,774.36924 344.30137,775.04114 344.31667,775.67234 C 343.71147,775.23784 342.93617,774.87814 341.59377,774.87814 C 341.95907,775.64094 342.85427,776.30934 343.99527,776.48594 C 343.56007,776.70614 343.16297,777.13474 343.03057,777.65834 C 343.74577,777.83664 344.20667,777.69124 344.69487,777.27994 C 344.11257,778.47324 343.44077,778.85764 342.36417,778.81344 C 336.77337,772.52764 336.02057,767.64694 342.71797,762.82264 L 341.80467,762.36234 C 334.76447,767.49074 336.41627,773.02114 339.49237,777.23004 C 340.20447,778.18104 339.93827,778.87244 339.41187,779.60234 C 339.25117,778.88634 338.27517,777.78534 337.17307,778.53424 C 335.77167,779.64254 336.82527,781.82244 338.76357,781.17274 C 338.87757,781.59314 338.74297,782.04724 338.59777,782.61354 C 339.15227,782.21364 339.29257,781.48454 339.31637,780.86544 C 340.08147,780.43374 340.44997,779.59754 340.71837,778.73714 C 342.54047,781.32724 347.14567,784.44734 348.02387,787.89824 C 348.73647,791.06254 347.03057,792.91754 344.94367,794.65714 C 344.87427,794.66454 341.58037,794.20334 341.76497,791.94234 C 341.88937,791.47604 342.46907,791.46414 342.50987,791.89304 C 342.61247,792.75334 343.05497,793.28264 343.61397,793.33934 L 343.57457,792.78744 C 344.12587,793.01704 344.42127,792.95184 344.99247,792.64964 L 344.87427,792.41324 C 345.16307,792.38654 345.51097,792.20264 345.74057,791.92024 L 345.50437,791.48684 L 346.56767,790.46274 L 346.15407,790.36374 C 346.46927,789.95704 346.86557,789.37364 346.78677,788.69044 C 346.54327,788.63354 346.28617,788.71204 346.07527,788.80724 C 346.42337,788.36114 346.59967,787.82594 346.63257,787.06364 C 346.42287,787.04244 346.22727,787.08384 345.99677,787.13254 C 346.36467,786.77934 346.50217,786.48234 346.42987,785.97464 C 345.68807,785.98314 345.23997,786.37034 344.85437,786.87634 C 344.83347,786.69974 344.77727,786.45284 344.53947,786.32464 C 344.33827,786.42734 343.82237,786.87344 343.83057,787.36894 C 343.71317,787.22214 343.60297,787.06794 343.43677,787.05404 C 343.37157,787.50704 343.30127,787.79874 343.20747,788.19614 C 343.04587,788.60994 342.47557,788.80334 342.44017,788.07314 C 342.49767,787.41234 343.43847,786.52284 343.72257,785.81894 C 343.63577,785.80964 343.51277,785.85524 343.46237,785.79094 C 343.74267,785.56674 343.89547,785.21524 343.90287,784.71684 C 343.72987,784.75944 343.55697,784.72824 343.38407,784.84334 C 343.50457,784.51734 343.57517,784.21994 343.48727,783.83194 C 343.25657,783.82794 343.06237,783.87834 342.90477,783.96574 C 342.84237,783.19944 342.22807,782.40724 341.55317,781.66684 C 341.54867,781.66174 341.54067,781.67024 341.53757,781.67044 C 340.85187,782.40744 340.22087,783.19434 340.15397,783.95884 C 339.99607,783.87154 339.80197,783.82114 339.57117,783.82514 C 339.48337,784.21344 339.55417,784.51054 339.67437,784.83654 C 339.50147,784.72144 339.32857,784.75234 339.15567,784.71064 C 339.16297,785.20844 339.31577,785.56014 339.59617,785.78414 C 339.54597,785.84844 339.42267,785.80284 339.33617,785.81214 C 339.61997,786.51604 340.56107,787.40554 340.61837,788.06654 C 340.58287,788.79654 340.01287,788.60314 339.85097,788.18934 C 339.75717,787.79194 339.68687,787.50054 339.62167,787.04724 C 339.45557,787.06114 339.34527,787.21534 339.22797,787.36214 C 339.23647,786.86724 338.72057,786.42054 338.51897,786.31814 C 338.28117,786.44604 338.22507,786.69294 338.20407,786.86974 C 337.81857,786.36354 337.37037,785.97634 336.62887,785.96784 C 336.55657,786.47544 336.69377,786.77254 337.06197,787.12604 C 336.83127,787.07724 336.63567,787.03594 336.42617,787.05684 C 336.45877,787.81914 336.63537,788.35434 336.98317,788.80044 C 336.77227,788.70524 336.51517,788.62674 336.27167,788.68364 C 336.19287,789.36714 336.58947,789.95024 336.90437,790.35694 L 336.49077,790.45594 L 337.55407,791.48034 L 337.31797,791.91404 C 337.54757,792.19604 337.89567,792.37974 338.18417,792.40644 L 338.06627,792.64284 C 338.63717,792.94504 338.93257,793.01044 339.48387,792.78054 L 339.44447,793.33254 C 339.93687,793.24684 340.31107,792.68904 340.29117,791.77604 C 340.29237,791.39554 340.91567,791.42964 340.88197,791.79584 C 341.19067,794.55424 342.83817,795.32244 343.34357,795.40124 C 342.36897,796.07534 341.27847,796.55034 339.87337,797.02604 L 342.48037,797.01984 C 350.70627,792.91214 352.58107,787.65414 343.30357,780.04514 C 344.70817,779.33044 345.32237,778.38254 345.49307,777.14274 C 345.99447,777.60564 346.46397,777.78244 347.19127,777.65714 C 347.05897,777.13424 346.66177,776.70564 346.22697,776.48474 C 347.36787,776.30844 348.26277,775.64064 348.62847,774.87784 C 347.28597,774.87784 346.51037,775.23694 345.90547,775.67184 C 345.92507,775.04084 345.73767,774.36874 345.16797,773.89424 C 345.44797,773.36494 345.74707,772.84874 346.17957,772.41994 C 346.80917,773.11604 346.67847,773.98664 346.50357,774.82514 C 346.89957,774.20454 347.60657,773.27374 348.49607,772.94914 C 348.87537,773.57304 348.74157,774.38634 348.23137,774.87784 z M 348.59727,773.11044 C 348.56437,773.05624 348.53127,773.00274 348.49807,772.94914 C 347.62527,773.24624 346.75707,774.41524 346.50017,774.80784 C 346.68897,774.04504 346.73917,772.93694 346.17647,772.40744 C 345.81767,772.73904 345.44747,773.24964 345.09477,773.86164 L 344.06837,772.44574 C 343.59047,772.94944 343.48047,773.58184 343.76927,774.84604 C 343.36057,774.19754 342.67317,773.25984 341.72807,772.95844 L 341.59657,773.26204 C 341.42567,772.71834 341.48177,771.84924 341.74767,771.07174 C 342.28507,771.31924 342.75957,772.07864 343.01647,772.76374 C 343.04167,771.99814 343.20497,771.19394 343.81727,770.64884 C 344.42157,771.19984 344.86917,772.01544 345.07747,772.92534 C 345.27397,772.01484 345.66857,771.25484 346.30347,770.64624 C 346.85907,771.25344 347.09177,771.97604 347.14117,772.74074 C 347.37957,772.06724 347.83307,771.32094 348.35577,771.08224 C 348.65507,771.79994 348.74497,772.60844 348.59727,773.11044 z M 345.07527,772.98544 C 344.97177,772.10784 344.00857,770.55154 343.80987,770.68684 C 343.20977,771.09494 343.03007,772.28804 343.01527,772.65294 C 343.00647,772.87434 342.83757,772.24674 342.68477,772.02534 C 341.85307,770.81804 342.14077,770.19864 342.83837,769.38344 C 343.18537,769.68874 343.56837,770.13854 343.80047,770.61144 C 344.09187,770.08334 344.55307,769.54304 345.06047,769.20084 C 345.57047,769.54614 346.03557,770.09064 346.33157,770.62354 C 346.51837,770.14284 346.84947,769.68334 347.15417,769.37034 C 348.21287,770.94444 347.96687,771.04684 347.53427,771.90594 C 347.42857,772.11634 347.20997,772.35664 347.15247,772.70904 C 347.13827,772.79744 347.15617,772.42784 347.02857,771.93574 C 346.92967,771.55274 346.69527,771.10514 346.32017,770.65134 C 346.28847,770.61314 346.33017,770.63634 346.31227,770.65084 C 345.78957,771.08084 345.26997,772.09224 345.07527,772.98544 z M 344.81157,769.37154 C 344.44907,769.68074 344.13587,770.04734 343.85127,770.53544 L 343.81157,770.60974 C 343.61537,770.27864 343.41927,769.98234 343.15957,769.70094 L 342.91867,769.44384 C 343.19137,769.04104 343.50827,768.64814 343.92237,768.31704 C 344.31437,768.58854 344.63727,768.94944 344.81157,769.37154 z M 345.31617,769.39954 C 345.47807,769.55234 345.66117,769.68564 345.80207,769.85884 C 345.99847,770.10004 346.14847,770.37524 346.32167,770.63374 C 346.53677,770.12044 346.82307,769.74144 347.08557,769.45774 C 346.83557,769.06194 346.54187,768.67594 346.15237,768.35194 C 345.77847,768.62144 345.47327,768.97944 345.31617,769.39954 z M 345.82047,768.61754 C 345.66287,768.79244 345.49107,769.00304 345.34737,769.31204 L 345.31307,769.36274 L 345.06647,769.19324 L 344.82667,769.34234 L 344.65037,769.05294 L 344.32747,768.61754 C 344.47797,768.30284 344.72597,767.96214 345.04917,767.80624 C 345.33657,767.96414 345.67757,768.27654 345.82047,768.61754 z M 337.93367,780.54284 C 338.33837,780.54284 338.66897,780.21294 338.66897,779.80784 C 338.66897,779.40244 338.33837,779.07194 337.93367,779.07194 C 337.52857,779.07194 337.19807,779.40244 337.19807,779.80784 C 337.19807,780.21294 337.52857,780.54284 337.93367,780.54284 z M 338.73357,781.18604 L 339.30757,780.86824 M 338.23917,780.47204 C 338.66587,780.28174 339.22647,779.91184 339.39687,779.62694"
         id="path305"
         style="fill:#00a43f;fill-opacity:1;fill-rule:evenodd;stroke:#000000;stroke-width:0.28;stroke-miterlimit:4;stroke-dasharray:none;stroke-opacity:1" />
      <path
         d="M 341.50557,783.59014 L 341.49617,783.57704 C 341.67107,785.84114 341.74477,788.18284 341.72867,790.45054 C 342.86077,790.53324 343.97677,789.14314 344.75177,788.00844 C 343.76027,790.07914 342.77067,790.78334 341.47037,791.22554 C 340.18807,790.78694 339.21267,790.08574 338.24997,788.02154 C 339.02497,789.15624 340.14127,790.54664 341.27317,790.46294 C 341.25697,788.19614 341.33067,785.85414 341.50557,783.59014"
         id="path309"
         style="fill:#000000;fill-opacity:1;fill-rule:evenodd;stroke:none" />
    </g>
    <path
       d="M 338.66239,111.47098 L 385.26991,131.57917 L 385.26991,111.47098"
       id="path315"
       style="fill:#0092c5;fill-opacity:1;fill-rule:evenodd;stroke:none" />
    <path
       d="M 230.91578,111.7356 L 248.0681,162.04097 L 340.27058,201.82224 L 309.14744,111.47098"
       id="path317"
       style="fill:#0092c5;fill-opacity:1;fill-rule:evenodd;stroke:none" />
    <path
       d="M 340.27058,201.82224 L 375.61884,304.44512 L 385.26991,308.61068 L 385.26991,221.23872"
       id="path319"
       style="fill:#0092c5;fill-opacity:1;fill-rule:evenodd;stroke:none" />
    <path
       d="M 194.7809,138.74629 L 248.0681,162.04097 L 283.41636,264.66629 L 194.5736,226.1369"
       id="path321"
       style="fill:#0092c5;fill-opacity:1;fill-rule:evenodd;stroke:none" />
    <path
       d="M 283.41636,264.66629 L 318.90924,367.70512 L 385.26991,396.33757 L 385.26991,332.46739 L 375.61884,304.44512"
       id="path323"
       style="fill:#0092c5;fill-opacity:1;fill-rule:evenodd;stroke:none" />
    <path
       d="M 194.7809,231.60757 L 229.00783,328.91093 L 194.25148,313.84163"
       id="path325"
       style="fill:#0092c5;fill-opacity:1;fill-rule:evenodd;stroke:none" />
    <path
       d="M 318.90924,367.70512 L 229.00783,328.91093 L 264.75223,432.68366 L 354.65247,471.47668"
       id="path327"
       style="fill:#0092c5;fill-opacity:1;fill-rule:evenodd;stroke:none" />
    <path
       d="M 385.26991,554.22855 L 354.65247,471.47668 L 385.26991,484.68802"
       id="path329"
       style="fill:#0092c5;fill-opacity:1;fill-rule:evenodd;stroke:none" />
    <path
       d="M 264.75223,432.68366 L 300.3237,535.02366 C 279.41914,523.85355 253.3593,508.90914 231.40224,477.55117 C 217.45769,457.90825 205.64431,439.40318 198.67687,406.50391"
       id="path331"
       style="fill:#0092c5;fill-opacity:1;fill-rule:evenodd;stroke:none" />
    <path
       d="M 277.62807,132.74357 L 277.62807,171.14387 L 240.19893,171.14387 L 240.19893,196.46777 L 277.62807,196.46777 L 277.62807,243.95779 L 226.53061,243.95779 L 226.53061,269.29019 L 277.62807,269.29019 L 277.62807,384.49119 L 302.95568,384.49119 L 302.95568,269.29019 L 357.1746,269.29019 L 357.1746,243.95779 L 302.95568,243.95779 L 302.95568,196.46777 L 344.14311,196.46777 L 344.14311,171.14387 L 302.95568,171.14387 L 302.95568,132.74357 L 277.62807,132.74357 z"
       id="path335"
       style="fill:#f9d100;fill-opacity:1;fill-rule:evenodd;stroke:#000000;stroke-width:3.40342474;stroke-miterlimit:4;stroke-dasharray:none;stroke-opacity:1" />
    <path
       d="M 292.52297,145.39824 L 292.52297,364.26876 L 288.05716,364.26876 L 288.05716,145.39824"
       id="path339"
       style="fill:#000000;fill-opacity:1;fill-rule:evenodd;stroke:none" />
    <path
       d="M 251.95528,181.57296 L 330.08218,181.57296 L 330.08218,186.04239 L 251.95528,186.04239"
       id="path341"
       style="fill:#000000;fill-opacity:1;fill-rule:evenodd;stroke:none" />
    <path
       d="M 240.19893,254.39411 L 344.14311,254.39411 L 344.14311,258.85631 L 240.19893,258.85631"
       id="path343"
       style="fill:#000000;fill-opacity:1;fill-rule:evenodd;stroke:none" />
    <path
       d="M 290.28997,384.49119 C 297.26708,384.49119 302.95568,390.17979 302.95568,397.1569 C 302.95568,404.1302 297.26708,409.8188 290.28997,409.8188 C 283.31667,409.8188 277.62807,404.1302 277.62807,397.1569 C 277.62807,390.17979 283.31667,384.49119 290.28997,384.49119"
       id="path345"
       style="fill:#f9d100;fill-opacity:1;fill-rule:evenodd;stroke:#000000;stroke-width:3.40342474;stroke-miterlimit:4;stroke-dasharray:none;stroke-opacity:1" />
    <path
       d="M 277.62807,422.48803 L 271.29531,487.97841 L 309.28482,487.97841 L 302.95568,422.48803 C 302.93137,415.53162 297.26708,409.8188 290.28997,409.8188 C 283.31667,409.8188 277.65482,415.54998 277.62807,422.48803"
       id="path349"
       style="fill:#f9d100;fill-opacity:1;fill-rule:evenodd;stroke:#000000;stroke-width:3.40342474;stroke-miterlimit:4;stroke-dasharray:none;stroke-opacity:1" />
  </g>
</svg>

<svg xmlns="http://www.w3.org/2000/svg" version="1.0" width="402.07" height="455.189"><path d="M589.573 106.196H188.812c-1.282 79.147-.695 160.826-.695 241.603 0 27.435.46 52.347 6.954 74.16 6.033 20.275 14.957 39.145 27.132 55.048 12.042 15.708 24.635 30.808 40.355 42.518 31.723 23.622 70.72 41.86 125.939 41.86 27.19 0 51.415-4.719 72.011-12.528 20.58-7.803 38.737-17.266 54.272-29.332 38.46-29.876 68.442-72.336 74.45-130.862 1.264-12.367.695-25.61.695-39.55V107.177c.025-.455.059-.933-.352-.98z" style="fill:#000;fill-opacity:1;fill-rule:evenodd;stroke:none" transform="translate(-187.983 -106.196)"/><path d="M194.87 111.686h190.603v444.728c-24.167-.64-45.843-5.173-64.454-12.39-20.118-7.794-37.866-17.266-53.04-29.34-37.597-29.876-66.9-72.345-72.774-130.846-1.24-12.375-.67-25.626-.67-39.55l.335-232.602z" style="fill:#fff;fill-opacity:1;fill-rule:evenodd;stroke:none" transform="translate(-187.983 -106.196)"/><path d="M583.506 344.288c0 13.924.562 27.175-.678 39.55-5.866 58.501-35.176 100.97-72.774 130.845-15.175 12.075-32.921 21.547-53.04 29.34-18.61 7.218-40.288 11.75-64.453 12.391V111.686h190.602l.343 232.602z" style="fill:#f9d100;fill-opacity:1;fill-rule:evenodd;stroke:none" transform="translate(-187.983 -106.196)"/><path d="M348.231 774.878c-.76.105-1.496.16-2.353.875.13-.51-.136-1.49-.762-1.773-.441.16-.893 1.048-.763 1.79-.304-.42-1.488-.867-2.362-.892-.51-.488-.642-1.298-.262-1.918.888.313 1.47 1.013 1.985 1.843-.17-.811-.298-1.66.338-2.326.391.437.664.908 1.016 1.418-.575.474-.767 1.146-.751 1.777-.606-.434-1.38-.794-2.723-.794.365.763 1.26 1.431 2.401 1.608-.435.22-.832.649-.964 1.172.715.179 1.176.033 1.664-.378-.582 1.193-1.254 1.578-2.33 1.533-5.592-6.285-6.344-11.166.353-15.99l-.913-.46c-7.04 5.128-5.389 10.658-2.313 14.867.712.951.446 1.642-.08 2.372-.16-.716-1.137-1.817-2.239-1.068-1.401 1.109-.348 3.288 1.59 2.639.115.42-.02.874-.165 1.44.554-.4.695-1.128.718-1.748.765-.431 1.134-1.267 1.402-2.128 1.822 2.59 6.428 5.71 7.306 9.161.712 3.165-.993 5.02-3.08 6.76-.07.007-3.364-.455-3.179-2.716.124-.466.704-.478.745-.049.102.86.545 1.39 1.104 1.446l-.04-.552c.552.23.847.165 1.418-.137l-.118-.237c.29-.026.637-.21.867-.493l-.237-.433 1.064-1.024-.414-.1c.315-.406.712-.99.633-1.673-.244-.056-.5.022-.712.117.348-.446.525-.981.558-1.743-.21-.022-.406.02-.636.069.368-.354.505-.65.433-1.158-.742.008-1.19.395-1.576.901-.02-.176-.077-.423-.315-.551-.2.102-.717.548-.708 1.044-.118-.147-.228-.301-.394-.315-.065.453-.136.745-.23 1.142-.161.414-.731.607-.767-.123.058-.66.998-1.55 1.283-2.254-.087-.01-.21.036-.26-.028.28-.224.432-.576.44-1.074-.173.042-.346.011-.519.126.12-.326.191-.623.103-1.011a1.145 1.145 0 0 0-.582.134c-.063-.767-.677-1.559-1.352-2.3-.004-.004-.012.004-.015.004-.686.737-1.317 1.524-1.384 2.289a1.147 1.147 0 0 0-.583-.134c-.088.388-.017.686.103 1.012-.173-.116-.345-.085-.518-.126.007.497.16.85.44 1.073-.05.064-.173.019-.26.028.284.704 1.225 1.594 1.282 2.255-.035.73-.605.536-.767.122-.094-.397-.164-.688-.23-1.142-.165.014-.276.168-.393.315.008-.495-.507-.941-.709-1.044-.238.128-.294.375-.315.552-.385-.506-.834-.894-1.575-.902-.072.507.065.805.433 1.158-.23-.049-.426-.09-.636-.07.033.763.21 1.298.557 1.744-.21-.095-.468-.173-.711-.116-.08.683.317 1.266.632 1.673l-.413.099 1.063 1.024-.236.434c.23.282.578.466.866.492l-.118.237c.571.302.867.367 1.418.138l-.04.552c.493-.086.867-.644.847-1.557.001-.38.625-.346.591.02.309 2.758 1.956 3.526 2.462 3.605-.975.674-2.066 1.15-3.47 1.625l2.606-.006c8.226-4.108 10.101-9.366.824-16.975 1.404-.715 2.018-1.662 2.19-2.902.5.463.97.64 1.697.514-.132-.523-.53-.951-.964-1.172 1.14-.177 2.036-.844 2.401-1.607-1.342 0-2.118.359-2.723.794.02-.631-.167-1.303-.737-1.778.28-.53.58-1.045 1.012-1.474.63.696.498 1.567.324 2.405.396-.62 1.103-1.551 1.992-1.876.38.624.246 1.437-.265 1.929zm.366-1.768a20.975 20.975 0 0 0-.099-.16c-.873.296-1.74 1.465-1.998 1.858.189-.763.24-1.871-.324-2.4-.358.331-.729.842-1.081 1.454l-1.027-1.416c-.478.503-.588 1.136-.299 2.4-.408-.648-1.096-1.586-2.04-1.888l-.132.304c-.171-.544-.115-1.413.15-2.19.538.247 1.013 1.007 1.27 1.692.025-.766.188-1.57.8-2.115.605.55 1.052 1.366 1.26 2.276.197-.91.592-1.67 1.226-2.279.556.607.789 1.33.838 2.095.239-.674.692-1.42 1.215-1.659.3.718.389 1.526.241 2.028zm-3.522-.125c-.103-.877-1.066-2.433-1.265-2.298-.6.408-.78 1.601-.795 1.966-.009.221-.177-.406-.33-.628-.832-1.207-.544-1.826.153-2.642.347.306.73.756.962 1.228.292-.528.753-1.068 1.26-1.41.51.345.976.89 1.272 1.423.186-.481.517-.94.822-1.254 1.059 1.574.813 1.677.38 2.536-.105.21-.324.45-.382.803-.014.088.004-.281-.123-.773-.1-.383-.334-.83-.709-1.285-.032-.038.01-.015-.008 0-.522.43-1.042 1.441-1.237 2.334zm-.263-3.613c-.363.309-.676.675-.96 1.163l-.04.075a5.191 5.191 0 0 0-.652-.91l-.241-.256c.272-.403.59-.796 1.003-1.127.392.272.715.632.89 1.055zm.504.028c.162.152.345.286.486.459.196.241.346.516.52.775.215-.514.501-.893.764-1.176-.25-.396-.544-.782-.934-1.106-.374.27-.679.627-.836 1.048zm.504-.782a2.7 2.7 0 0 0-.473.694l-.034.05-.247-.169-.24.15-.176-.29-.323-.435c.151-.315.399-.656.722-.812.288.158.629.47.771.812zm-7.886 11.925a.737.737 0 0 0 0-1.471.737.737 0 0 0 0 1.47zm.8.643.574-.318m-1.069-.396c.427-.19.987-.56 1.158-.845" style="fill:#00a43f;fill-opacity:1;fill-rule:evenodd;stroke:#000;stroke-width:.28;stroke-miterlimit:4;stroke-dasharray:none;stroke-opacity:1" transform="matrix(12.20542 0 0 -12.20542 -3877.888 9733.562)"/><path d="m341.506 783.59-.01-.013c.175 2.264.249 4.606.233 6.874 1.132.082 2.248-1.308 3.023-2.443-.992 2.071-1.981 2.775-3.282 3.218-1.282-.44-2.257-1.14-3.22-3.204.775 1.134 1.891 2.525 3.023 2.44a82.528 82.528 0 0 1 .233-6.872" style="fill:#000;fill-opacity:1;fill-rule:evenodd;stroke:none" transform="matrix(12.20542 0 0 -12.20542 -3877.888 9733.562)"/><path d="m338.662 111.471 46.608 20.108v-20.108M230.916 111.736l17.152 50.305 92.203 39.781-31.124-90.351M340.27 201.822l35.349 102.623 9.65 4.166v-87.372M194.78 138.746l53.288 23.295 35.348 102.625-88.842-38.53" style="fill:#0092c5;fill-opacity:1;fill-rule:evenodd;stroke:none" transform="translate(-187.983 -106.196)"/><path d="m283.416 264.666 35.493 103.04 66.36 28.632v-63.87l-9.65-28.023M194.78 231.608l34.228 97.303-34.757-15.07" style="fill:#0092c5;fill-opacity:1;fill-rule:evenodd;stroke:none" transform="translate(-187.983 -106.196)"/><path d="m318.91 367.705-89.902-38.794 35.744 103.773 89.9 38.793M385.27 554.229l-30.618-82.752 30.618 13.211M264.752 432.684l35.572 102.34c-20.905-11.17-46.965-26.115-68.922-57.473-13.944-19.643-25.758-38.148-32.725-71.047" style="fill:#0092c5;fill-opacity:1;fill-rule:evenodd;stroke:none" transform="translate(-187.983 -106.196)"/><path d="M277.628 132.744v38.4h-37.43v25.324h37.43v47.49h-51.097v25.332h51.097v115.201h25.328v-115.2h54.219v-25.333h-54.22v-47.49h41.188v-25.324h-41.187v-38.4h-25.328z" style="fill:#f9d100;fill-opacity:1;fill-rule:evenodd;stroke:#000;stroke-width:3.40342474;stroke-miterlimit:4;stroke-dasharray:none;stroke-opacity:1" transform="translate(-187.983 -106.196)"/><path d="M292.523 145.398v218.87h-4.466v-218.87" style="fill:#000;fill-opacity:1;fill-rule:evenodd;stroke:none" transform="translate(-187.983 -106.196)"/><path d="M251.955 181.573h78.127v4.47h-78.127M240.199 254.394h103.944v4.462H240.2" style="fill:#000;fill-opacity:1;fill-rule:evenodd;stroke:none" transform="translate(-187.983 -106.196)"/><path d="M290.29 384.491c6.977 0 12.666 5.689 12.666 12.666 0 6.973-5.689 12.662-12.666 12.662-6.973 0-12.662-5.689-12.662-12.662 0-6.977 5.689-12.666 12.662-12.666" style="fill:#f9d100;fill-opacity:1;fill-rule:evenodd;stroke:#000;stroke-width:3.40342474;stroke-miterlimit:4;stroke-dasharray:none;stroke-opacity:1" transform="translate(-187.983 -106.196)"/><path d="m277.628 422.488-6.333 65.49h37.99l-6.33-65.49c-.024-6.956-5.688-12.67-12.665-12.67-6.973 0-12.635 5.732-12.662 12.67" style="fill:#f9d100;fill-opacity:1;fill-rule:evenodd;stroke:#000;stroke-width:3.40342474;stroke-miterlimit:4;stroke-dasharray:none;stroke-opacity:1" transform="translate(-187.983 -106.196)"/></svg>
